X: 68
T: String Quartet No. 16 in F Major, Op. 135 mvt 1
C: Ludwig van Beethoven
%%abc-version 2.0
%%abcx-abcm2ps-target-version 5.9.1 (29 Sep 2008)
%%abc-creator hum2abc beta
%%abcx-conversion-date 2021/01/27 10:01:14
%%abc-edited-by Craig Stuart Sapp
%%abcx-initial-encoding-date 2004/09/08/
%%gracespace 0 6 6
%%humdrum-veritas 3874688158
%%humdrum-veritas-data 3040125999
%%linebreak <none>
%%barnumbers 0
L: 1/16
M: 2/4
N: Derived from quartet16-1.krn
Q: "Allegretto" 1/4=80
%%staves [1 2 3 4]
V: 1 clef=treble
V: 2 clef=treble
V: 3 clef=alto
V: 4 clef=bass
K: F
[V:1] z [I:setbarnb 1][|] 
[V:2] z [|] 
[V:3] G,/A,/ [|] 
[V:4] z [|] 
[V:1] z8 | 
[V:2] z8 | 
[V:3] B,4F,7/G,/ | 
[V:4] z4_D,,4 | 
[V:1] z G/A/ .B2z4 | 
[V:2] z8 | 
[V:3] E,2 z2 z3 G,/A,/ | 
[V:4] C,,2 z2z4 | 
[V:1] z8 | 
[V:2] z4B,4 | 
[V:3] B,4F,7/G,/ | 
[V:4] z4_D,,4 | 
[V:1] z e/f/ .g2z4 | 
[V:2] [G,E] G/A/ .B2z4 | 
[V:3] E,2 z2 z> G,C,E, | 
[V:4] C,,2 z2 z2 B,,2 | 
[V:1] z4z> BCG | 
[V:2] z> ACF .G2 z2 | 
[V:3] .F,2 z2z4 | 
[V:4] A,,2F,,2 E,,2C,,2 | 
[V:1] A>Bc4z2 | 
[V:2] z2 A,>B, .C2 z2 | 
[V:3] z2 F,>G, A,FED | 
[V:4] z2 F,,2z4 | 
[V:1] z dBG F2 z2 | 
[V:2] z8 | 
[V:3] C2 z2 z G,E,C, | 
[V:4] z2 B,,2C,2C,2 | 
[V:1] z2 A>B cz/f/ed | 
[V:2] z2 F>G .F2 z2 | 
[V:3] A,>B,C2- Cz/F/ED | 
[V:4] z4A,,2B,,2 | 
[V:1] cz/d'/bg .fz/g/ec | 
[V:2] z> dBG .Fz/G/EC | 
[V:3] .Cz/D/B,G, .F,z/G,/E,C, | 
[V:4] z2 B,,2C,2C,,2 | 
[V:1] f2 z2c4 | 
[V:2] F2 z2z4 | 
[V:3] F,2 z2C4 | 
[V:4] F,,2 z2C,4 | 
[V:1] D4A4 | 
[V:2] z4A,4 | 
[V:3] D,4A,4 | 
[V:4] D,,4A,,4 | 
[V:1] G4d4 | 
[V:2] G,4z4 | 
[V:3] G,4D4 | 
[V:4] G,,4D,4 | 
[V:1] E4B4 | 
[V:2] z4B,4 | 
[V:3] E,4B,4 | 
[V:4] E,,4B,,4 | 
[V:1] A4a4 | 
[V:2] A,4A,4 | 
[V:3] A,4F,4 | 
[V:4] A,,4D,,4 | 
[V:1] f4-(3:2:6fed c=Bd | 
[V:2] =B,8- | 
[V:3] D,8- | 
[V:4] G,,8- | 
[V:1] (3:2:12G^FG A=Bc def ga=b | 
[V:2] B,2.[=B,2F2] .[B,2F2].[B,2F2] | 
[V:3] D,2.[G,2D2] .[G,2D2].[G,2D2] | 
[V:4] G,,2.G,,2 .G,,2.G,,2 | 
[V:1] c'2 =b>d' .c'2.c'2 | 
[V:2] [G,2E2] z2 z2 =B,3/D/ | 
[V:3] [C,2C2] z2 z2 D,3/F,/ | 
[V:4] C,,2 z2z4 | 
[V:1] c'8- | 
[V:2] .C2G>B .A2_E2- | 
[V:3] .E,2.E,2_E,4- | 
[V:4] z2 E,,>G,, .^F,,2.F,,2 | 
[V:1] c'>^f .b2.b2.b2 | 
[V:2] E2D2 .D2.G2 | 
[V:3] E,2^F,>B, .D,2.D,2 | 
[V:4] ^F,,4B,,4- | 
[V:1] b8- | 
[V:2] G2 z2 z2 G3/B/ | 
[V:3] D,2D,>=F, .=E,2.E,2 | 
[V:4] B,,>D,, .G,,2.G,,2.G,,2 | 
[V:1] b2g>b .a2.a2 | 
[V:2] .C2.C2 .A2.A2 | 
[V:3] E,>G, F,2c4 | 
[V:4] G,,2F,,2.F,,2.F,,2 | 
[V:1] a2E>G .F2.F2 | 
[V:2] z4f4 | 
[V:3] F4A4 | 
[V:4] z2[K:clef=tenor] ^C>E .D2.D2 | 
[V:1] z8 | 
[V:2] =B2^c>e .d2.d2 | 
[V:3] D2E>G .F2.F2 | 
[V:4] z4[K:clef=bass]_A,4 | 
[V:1] z4g4 | 
[V:2] d2d>f .e2.e2 | 
[V:3] F2D>=B, ._B,2.B,2 | 
[V:4] =B,,2B,,>D, .C,2.C,2 | 
[V:1] c4-cfef | 
[V:2] A[FA][FA][FA] [F2A2] z2 | 
[V:3] A,A,A,A, A,2 z2 | 
[V:4] F,F,F,F, F,2 z2 | 
[V:1] .cdAB .Abfg | 
[V:2] z8 | 
[V:3] z8 | 
[V:4] z8 | 
[V:1] a2 z2z4 | 
[V:2] A4-Ad^cd | 
[V:3] [F,A,]FFF F2 z2 | 
[V:4] D,DDD D2 z2 | 
[V:1] z8 | 
[V:2] .ABFG .FGEF | 
[V:3] z8 | 
[V:4] z8 | 
[V:1] d4-dg^fg | 
[V:2] G=B,B,B, B,2 z2 | 
[V:3] D=BBBB4 | 
[V:4] =B,G,G,G,G,4 | 
[V:1] .^fgde .de=Bc | 
[V:2] z4z E=B,C | 
[V:3] z GDE .D=B,G,A, | 
[V:4] z8 | 
[V:1] d=Bd.d dBgz/.g/ | 
[V:2] .D2 z2 =BGB.B | 
[V:3] .=B,2 z2z4 | 
[V:4] [K:clef=tenor]G8 | 
[V:1] g4^f4 | 
[V:2] ADA.A A^Fcz/.c/ | 
[V:3] z8 | 
[V:4] D8 | 
[V:1] DG,D.D D=B,Fz/.F/ | 
[V:2] c4=B4 | 
[V:3] G,8 | 
[V:4] z8 | 
[V:1] F4E4- | 
[V:2] z8 | 
[V:3] C,4-C,C,E,z/.E,/ | 
[V:4] [K:clef=bass]G,,C,,G,,.G,, G,,C,,C,z/.C,/ | 
[V:1] EEe.e eEez/.e/ | 
[V:2] z Cc.c cCcz/.c/ | 
[V:3] E,8- | 
[V:4] C,4^G,,4 | 
[V:1] e2>^c2 ed=b.a | 
[V:2] ^c4-cDd.d | 
[V:3] E,E,B,.B, .A,A,D.D | 
[V:4] G,,4^F,,2=F,,2- | 
[V:1] d=cag c=Bag | 
[V:2] z .G.=c.c z .D.=B.B | 
[V:3] z .G,.G.G z .G,.D.D | 
[V:4] F,,2.E,,2.F,,2.G,,2 | 
[V:1] g8- | 
[V:2] .C2.E2.G2.c2 | 
[V:3] (3:2:9CG,A, G,E,F, E,C,D, C,2 | 
[V:4] z4z2 (3E[K:clef=tenor]DC | 
[V:1] g8 | 
[V:2] .=B2.d2.f4 | 
[V:3] z4(3:2:6G,=B,D G=Bd | 
[V:4] (3:2:6FD=B,[K:clef=bass] G,D,=B,, G,,2 z2 | 
[V:1] .g2.=b2 .d'2.g'2 | 
[V:2] (3:2:9fde d=Bc BGA G2 | 
[V:3] =B2 z2 z2 (3BAG | 
[V:4] z8 | 
[V:1] .e'2.g'2c''4 | 
[V:2] z4(3:2:6EGc eg=b | 
[V:3] (3:2:6cGE CG,E, C,2 z2 | 
[V:4] z4(3:2:6CG,E, C,G,,E,, | 
[V:1] z4z2 (3e'd'c' | 
[V:2] (3:2:9c'ga gef ecd c2 | 
[V:3] z4.C,2.E,2 | 
[V:4] .C,,2.E,,2 .G,,2.C,2 | 
[V:1] (3:2:12f'd'=b fd=B GBd gbd' | 
[V:2] z4(3:2:6fd=B dBG | 
[V:3] .G,2.=B,2.D2.F2 | 
[V:4] .=B,,2.D,2 .F,.G,.=B,.D | 
[V:1] (3:2:12f'd'=b gc'e' e'c'a f_bd' | 
[V:2] (3:2:6=Bcd efez4 | 
[V:3] (3:2:12GA=B cdc A,B,C DED | 
[V:4] z2 C2 (3:2:6F,G,A, B,CB, | 
[V:1] (3:2:12d'=b^g eac' c'a^f b=gd | 
[V:2] (3:2:12^GA=B cdc AAA =GGG | 
[V:3] (3:2:12EEE EEE ^FED DDD | 
[V:4] =B,2A,2 (3:2:6D,E,^F, G,A,G, | 
[V:1] c'2g2c'2.a2 | 
[V:2] c2G2c2.A2 | 
[V:3] C2G,2C2.A,2 | 
[V:4] ^D,8- | 
[V:1] g6a=b | 
[V:2] G6A=B | 
[V:3] G,6A,=B, | 
[V:4] D,2E,2 F,2=D,2 | 
[V:1] c'2d'2 .e'2.e'2 | 
[V:2] c2d2 .e2.e2 | 
[V:3] C2D2 .E2.C2 | 
[V:4] C,2=B,,2 .C,2.A,,2 | 
[V:1] e'2d'2 c'2a2 | 
[V:2] e2d2 c2A2 | 
[V:3] =B,2^G,2 A,2D,2 | 
[V:4] ^G,,2E,,2F,,4 | 
[V:1] a^g.g.a a=g.g.g | 
[V:2] [D=B]ddd dddd | 
[V:3] D,=B,B,=B BBBB | 
[V:4] E,,2[K:clef=tenor].E2.F2.F2 | 
[V:1] ge.e.f .f.^f.fg | 
[V:2] cccc ccee | 
[V:3] EEEE ECCc | 
[V:4] =G2G2A2A2 | 
[V:1] (3:2:12a^g.g ga.a ag.g g=g.g | 
[V:2] (3:2:12eed ddd ddd ddd | 
[V:3] (3:2:12c=BB BBB BBB BBB | 
[V:4] (3:2:12EEE EEE FFF FFF | 
[V:1] (3:2:12gef f^fg gag =fed | 
[V:2] (3:2:12ccc ddd AAA =BBB | 
[V:3] (3:2:12EEE =B,B,B, CCC DDD | 
[V:4] (3:2:12GGG GGG GGG GGG | 
[V:1] c4(3:2:6=Bag fed | 
[V:2] E4F4 | 
[V:3] C,4D,4 | 
[V:4] G8- | 
[V:1] .c2.d2.G2 z2 | 
[V:2] .G2.[A,2D2] (3:2:6[=B,D]AG FED | 
[V:3] .E,2.F,2 .G,2 z2 | 
[V:4] G4-(3:2:6GG,,G,,[K:clef=bass] G,,A,,=B,, | 
[V:1] (3:2:12z gf edc =Bag fed | 
[V:2] E4G4- | 
[V:3] [E,4G,4-][F,4G,4] | 
[V:4] C,4D,4 | 
[V:1] .c2.d'2.g2.=b2 | 
[V:2] (3:2:6GAG FED .E2.d2 | 
[V:3] .G,2.A,2 (3:2:6G,A,G, F,E,D, | 
[V:4] .E,2.F,2.G,2.G,,2 | 
[V:1] .^c'2 z2 z> eA^c | 
[V:2] .[G2A2] z2 z2 A2- | 
[V:3] .E,2 z2 z2 G2 | 
[V:4] .E,,2 z2z4 | 
[V:1] d2 z2 z2 F2 | 
[V:2] A2 z2 z> DG,=B, | 
[V:3] F2 z2 z2 D,2 | 
[V:4] z4z2 G,,2 | 
[V:1] E2 z2 z> e'a^c' | 
[V:2] C2 z2 z2 e2 | 
[V:3] C,2 z2 z2 G2 | 
[V:4] C,,2 z2 z2[K:clef=tenor] A2- | 
[V:1] d'2 z2 z2 =B,2- | 
[V:2] d2 z2 z> DG,=B, | 
[V:3] F2 z2 z2 [D,2G,2]- | 
[V:4] A2 z2 z2[K:clef=bass] G,,2- | 
[V:1] B,2 z2z4 | 
[V:2] D2 z2z4 | 
[V:3] [D,2G,2] z2z4 | 
[V:4] G,,2 z2D,4 | 
[V:1] z8 | 
[V:2] z8 | 
[V:3] z8 | 
[V:4] E,,4=B,,4 | 
[V:1] z8 | 
[V:2] z8 | 
[V:3] z4z2 z =B,/C/ | 
[V:4] A,,4E,4 | 
[V:1] z8 | 
[V:2] z8 | 
[V:3] D4A,7/=B,/ | 
[V:4] ^F,,4C,4 | 
[V:1] z4g4 | 
[V:2] z4z2 z D/E/ | 
[V:3] G,2 z2z4 | 
[V:4] =B,,2 z2z4 | 
[V:1] A4e4 | 
[V:2] F4C7/D/ | 
[V:3] z8 | 
[V:4] z8 | 
[V:1] d4a4 | 
[V:2] =B,4z4 | 
[V:3] z8 | 
[V:4] (3:2:6G,,=B,,D, G,=B,D F2 z E,,/F,,/ | 
[V:1] =B4f4 | 
[V:2] z8 | 
[V:3] z8 | 
[V:4] G,,4D,,7/_E,,/ | 
[V:1] _e4z4 | 
[V:2] (3:2:6C_EG c_eg c'2 z B/c/ | 
[V:3] z4_E4 | 
[V:4] C,,4z4 | 
[V:1] z8 | 
[V:2] _d4A7/B/ | 
[V:3] F,4C4 | 
[V:4] z8 | 
[V:1] (3:2:6GB_d gb_d' d'2 z c'/d'/ | 
[V:2] G4_d4 | 
[V:3] B,4F4 | 
[V:4] z4_E,,4- | 
[V:1] _e'4b7/c'/ | 
[V:2] _E4B4 | 
[V:3] G,4_D4 | 
[V:4] E,,4-E,,3 C,/_D,/ | 
[V:1] _a4z4 | 
[V:2] _A4_e4 | 
[V:3] (3:2:6C,_E,_A, C_E_A G3-(3A/ _D,/E,/ | 
[V:4] _E,4B,,3-(3C,/ B,,/C,/ | 
[V:1] z8 | 
[V:2] F4c4 | 
[V:3] F,4C,7/_D,/ | 
[V:4] _D,4_A,,4 | 
[V:1] (3:2:6B_df b_d'f' f'2 z2 | 
[V:2] B4f4 | 
[V:3] _D,2_D2 C3(3=D/ B,/C/ | 
[V:4] G,,4=A,,7/B,,/ | 
[V:1] _e4b3 c'/_d'/ | 
[V:2] G4[_E4_d4] | 
[V:3] _D4_A,3-(3B,/ A,/B,/ | 
[V:4] B,,4F,,7/G,,/ | 
[V:1] _e'4b3(3c'/ =a/b/ | 
[V:2] (3:2:6c_E_A c_e_a e2 z c/_d/ | 
[V:3] C4_D7/_E/ | 
[V:4] _A,,4_G,,4 | 
[V:1] c'4[B7/g7/][c/=a/] | 
[V:2] _e4=e7/f/ | 
[V:3] _E4(3:2:6F,=A,C F=Ac | 
[V:4] (3:2:6F,,=A,,C, F,=A,C F2 z2 | 
[V:1] [ca] z/ c'/fa .c'2 z2 | 
[V:2] [Af] z/ c/FA .c2 z2 | 
[V:3] c z/ C/F,A, .C2 z2 | 
[V:4] F z/ C,/F,,A,, .C,2 z2 | 
[V:1] z8 | 
[V:2] z8 | 
[V:3] z4z> CF,A, | 
[V:4] z8 | 
[V:1] z4z> _eFc | 
[V:2] z> =dFB .c2 z2 | 
[V:3] .B,2 z2z4 | 
[V:4] z2 B,,2 A,,2F,,2 | 
[V:1] d>_e f2- f> gc=e | 
[V:2] z2 D>_E F>GC=E | 
[V:3] z2 B,>C D>G,C,E, | 
[V:4] z2 B,,2 z z/ G,,/C,,E,, | 
[V:1] .g2 z2 z> GCE | 
[V:2] .G2 z2z4 | 
[V:3] .G,2 z2z4 | 
[V:4] .G,,2 z2 z2 B,2 | 
[V:1] F z/ A/CF G z/ B/CG | 
[V:2] z2 .C2.C2.G,2 | 
[V:3] z2 .A,2.G,2.E,2 | 
[V:4] A,2F,2E,2C,2 | 
[V:1] A>Bc4z2 | 
[V:2] z2A6 | 
[V:3] z2 A,>B,C4 | 
[V:4] z2F,6 | 
[V:1] A>=Bc4z2 | 
[V:2] z2 a>=bc'4 | 
[V:3] z2A6 | 
[V:4] z2F6 | 
[V:1] A>=Bc2 c>de2 | 
[V:2] z4a>=b c3/d/ | 
[V:3] z2 A,>=B,C4 | 
[V:4] z2 F,2-F,2E,2 | 
[V:1] (3:2:12cde eee dc=B BBB | 
[V:2] [A2e2] z2 ^G,2 z2 | 
[V:3] .E,2.A,2.E,2.^G,2 | 
[V:4] z2 z C,,/D,,/ .E,,2 z2 | 
[V:1] (3:2:12c=BA BA^G A^cd efg | 
[V:2] z2 z ^C/D/ E2 z2 | 
[V:3] .E,2.^G,2.E,2.^C2 | 
[V:4] .A,,2.E,,2.A,,2 z2 | 
[V:1] .f2.d'2.a2.^c'2 | 
[V:2] (3:2:12FGA AAA GFE EEE | 
[V:3] DD/E/F2 EE/G/A2 | 
[V:4] z8 | 
[V:1] .d'2.a2.d'2 z2 | 
[V:2] (3:2:12FED ED^C DE^F FED | 
[V:3] (3:2:12AGF GFE ^FGA AGF | 
[V:4] z2 z D,,/E,,/ ^F,,2 z2 | 
[V:1]  [K:G] z =b/=c'/ .d'2 z a/c'/ .d'2 | 
[V:2]  [K:G] .D2.=B,2.F2.[A,2D2] | 
[V:3]  [K:G] (3:2:12=Bcd ddd cBA AAA | 
[V:4]  [K:G] .D,,2.G,,2.D,,2.F,,2 | 
[V:1] z d/c'/ .d'2 z d/b/ .d'2 | 
[V:2] .[B,2D2].[C2D2] (3:2:6BAG GAB | 
[V:3] (3:2:6BAG AGF G2 z2 | 
[V:4] .G,,2.D,,2.G,,2 z2 | 
[V:1] (3:2:12bag fga gab bag | 
[V:2] (3:2:12dcB ABc BAG GFG | 
[V:3] (3:2:12G,A,B, A,B,C B,CD B,CB, | 
[V:4] .G,,2.D,,2.G,, E/F/ .G2 | 
[V:1] (3:2:12d'c'b abc' bc'd' d'c'b | 
[V:2] (3:2:12Bcd edf gAB BAG | 
[V:3] (3:2:12GAB cBA G_ED B,CD | 
[V:4] .G,,2.D,,2.G,, E/F/ .G2 | 
[V:1] (3:2:12GDE =FED EDC CDE | 
[V:2] (3:2:12edc Bcd cde edc | 
[V:3] (3:2:12E,=F,G, _A,G,F, G,F,E, E,F,G, | 
[V:4] .C,2.G,,2.C, A,/B,/ .C2 | 
[V:1] (3:2:12g=fe def efg gfe | 
[V:2] (3:2:12EDC B,CD CDE EDC | 
[V:3] c2G2c c/d/ .e2 | 
[V:4] (3:2:12CCC CCC CCC CCC | 
[V:1] (3:2:12e'd'c' bc'd' c'd'e' e'd'c' | 
[V:2] (3:2:12cde =fed edc cde | 
[V:3] (3:2:12E=FG _AGF GFE EFG | 
[V:4] .C2.G,2.C A,,/B,,/ .C,2 | 
[V:1] (3:2:12g'=f'e' d'e'f' e'f'g' g'a'_b' | 
[V:2] (3:2:12EDC _AG=F GFE e=fg | 
[V:3] (3:2:11G,G,G, =F,E,D, E,D,C, _B,B,(9:8:3B,// G,//A,// | 
[V:4] (3:2:12C,C,C, G,,G,,G,, C,C,,C,, _D,,D,,D,, | 
[V:1]  [K:F] b'2 z2b4- | 
[V:2]  [K:F] (3:2:6gab bbbB4- | 
[V:3]  [K:F] B,4F,7/G,/ | 
[V:4]  [K:F] (3:2:12_D,,D,,D,, D,,D,,D,, D,,D,,D,, D,,D,,D,, | 
[V:1] b2f>g e2 z2 | 
[V:2] B2F>G Ez/B/FG | 
[V:3] E,2 z2 z> B,F,G, | 
[V:4] (3:2:6_D,,D,,D,, D,,D,,D,, C,,z/B,,/F,,G,, | 
[V:1] z4z> GCE | 
[V:2] E2 z2z4 | 
[V:3] E,2 z2 z> G,C,E, | 
[V:4] E,,2 z2 z2 B,,2 | 
[V:1] .Fz/A/CF .Gz/B/CG | 
[V:2] z> acf .g2 z2 | 
[V:3] .F,z/A,/C,F, .G,z/B,/C,G, | 
[V:4] A,,2F,,2E,,2C,,2 | 
[V:1] A>B c2- cfed | 
[V:2] z2 a>b c'2 z2 | 
[V:3] A,>B, C2- CFED | 
[V:4] z2 F,>G,.A,2 B,,2 | 
[V:1] .c dBG .F GEC | 
[V:2] z8 | 
[V:3] .C DB,G, .F, G,E,C, | 
[V:4] z2 B,,2C,2C,,2 | 
[V:1] A>Bc4z2 | 
[V:2] z2 A>B cz/f/ed | 
[V:3] A,>B,C2- Cz/F/ED | 
[V:4] [K:clef=tenor]z2 F>G A2B,2 | 
[V:1] z> d'bg .f z/ g/ec | 
[V:2] c z/ d/BG F z/ B/GB, | 
[V:3] Cz/D,/B,D A, z/ E,/G,E | 
[V:4] [K:clef=bass]z> G,,G,,B,, C, z/ C,,/E,,G,, | 
[V:1] f2 z2 =B2c2 | 
[V:2] A,2 z2 =B,2C2 | 
[V:3] [A,2F2] z2 =B,2C2 | 
[V:4] F,,2 z2 =B,,2C,2 | 
[V:1] ^C2D2A2B2 | 
[V:2] ^C2D2A,2B,2 | 
[V:3] ^C,2D,2A,2B,2 | 
[V:4] ^C,,2D,,2A,,2B,,2 | 
[V:1] A2G2^c2d2 | 
[V:2] A,2G,2^C2D2 | 
[V:3] A,2G,2^C2D2 | 
[V:4] A,,2G,,2^C,2D,2 | 
[V:1] ^D2E2c2B2 | 
[V:2] ^D2E2C2B,2 | 
[V:3] ^D,2E,2C2B,2 | 
[V:4] ^D,,2E,,2C,2B,,2 | 
[V:1] B2A2z4 | 
[V:2] B,2A,2 z2 z c/d/ | 
[V:3] B,2A,2E2F2 | 
[V:4] B,,2A,,2z4 | 
[V:1] z8 | 
[V:2] _e4B7/c/ | 
[V:3] ^F,2G,2 D2_E2 | 
[V:4] z8 | 
[V:1] z4^f2g2 | 
[V:2] A2 z2 ^F2G2 | 
[V:3] D2C2z4 | 
[V:4] z4z2 z D,/_E,/ | 
[V:1] ^G2A2f2_e2 | 
[V:2] ^G,2A,2 F2_E2 | 
[V:3] z8 | 
[V:4] F,4C,7/D,/ | 
[V:1] _e2d2 f2e2 | 
[V:2] _E2D2 F2E2 | 
[V:3] z4F,2_E,2 | 
[V:4] B,,4F,,2_E,,2 | 
[V:1] _e2d2c'2b2 | 
[V:2] _E2D2c2B2 | 
[V:3] _E,2D,2C2B,2 | 
[V:4] _E,,2D,,2C,2B,,2 | 
[V:1] a2g2- (3:2:6gf_e dce | 
[V:2] A2G2 B,2A,2 | 
[V:3] ^F,2G,2 G,2_E,2 | 
[V:4] D,,2_E,,2 E,,2F,,2 | 
[V:1] (3:2:12BAc FAB cd_e fga | 
[V:2] ._E2.E2.E2.E2 | 
[V:3] .C,2.C2.C2.C2 | 
[V:4] .F,,2.F,,2.F,,2.F,,2 | 
[V:1] .b2a>c' .b2.b2 | 
[V:2] [G,2=E2] z2 z2 G,2- | 
[V:3] B,2 z2E,4- | 
[V:4] G,,2 z2C,,4- | 
[V:1] b8- | 
[V:2] G,2^F>A .G2.G2 | 
[V:3] E,2^D,>F, .E,2.E,2 | 
[V:4] C,,8- | 
[V:1] b2g>b .a2._a2 | 
[V:2] G2E>G .F2.C2 | 
[V:3] E,2G,>E, .F,2.F,2 | 
[V:4] C,,8- | 
[V:1] d4g4 | 
[V:2] =B,4_B,4 | 
[V:3] [F,4G,4-][E,4G,4] | 
[V:4] C,,2=B,,>D, .C,2.C,2 | 
[V:1] c4-cfef | 
[V:2] A,AAA A2 z2 | 
[V:3] F,CCC F2 z2 | 
[V:4] F,F,F,F, F,2 z2 | 
[V:1] .cdAB .ABFG | 
[V:2] z4z bfg | 
[V:3] z8 | 
[V:4] z8 | 
[V:1] AAAA A2 z2 | 
[V:2] a4-ad'^c'd' | 
[V:3] F,FFF F2 z2 | 
[V:4] D,DDD D2 z2 | 
[V:1] z4z AFG | 
[V:2] .abfg .afgf | 
[V:3] z4z A,=B,B, | 
[V:4] z4z D,D,D, | 
[V:1] GEG.G GEcz/.c/ | 
[V:2] e4-eG,Ez/.E/ | 
[V:3] C8 | 
[V:4] C,2 z2z4 | 
[V:1] c4=B4 | 
[V:2] DGd.d dGfz/.f/ | 
[V:3] G,8 | 
[V:4] z8 | 
[V:1] z CG.G GCBz/.B/ | 
[V:2] f4e4 | 
[V:3] z4z C,G,z/.G,/ | 
[V:4] C,8 | 
[V:1] B4A4- | 
[V:2] z4z A,Fz/.F/ | 
[V:3] G,C,F,.F, F,C,A,z/.A,/ | 
[V:4] F,,8 | 
[V:1] AA,AA AAaz/.a/ | 
[V:2] F4-FFfz/.f/ | 
[V:3] [F,8A,8] | 
[V:4] F,,4^C,,4 | 
[V:1] a4-age'd' | 
[V:2] ^f2^F2G2E2 | 
[V:3] _E,4D,2G,2 | 
[V:4] C,,2C,2=B,,2_B,,2- | 
[V:1] gfd'c' fed'c' | 
[V:2] z .C.F.F z .G,.E.E | 
[V:3] z .F,.C,.C, z .C,.G,.G, | 
[V:4] B,,2.A,,2 .B,,2.C,2 | 
[V:1] c'8- | 
[V:2] (3:2:9fcd cAB AFG [A,2F2] | 
[V:3] A,6(3AGF | 
[V:4] [K:clef=tenor].F,2.A,2.C2.F2 | 
[V:1] .c'2.e'2 .g'2.b'2 | 
[V:2] z2 [G,2E2] (3:2:6CEG ceg | 
[V:3] (3:2:6BGE B,G,E, C,2 z2 | 
[V:4] .E2.G2B4 | 
[V:1] .c2.e2 .g2.b2 | 
[V:2] (3:2:12bga gef ecd [Gc]FE | 
[V:3] (3:2:9GEF B,G,A, G,E,F, E,2 | 
[V:4] z4z2 (3EDC | 
[V:1] .a2.c'2f'4- | 
[V:2] z4(3:2:6Ac_e ac'_e' | 
[V:3] z4.F2.c2 | 
[V:4] (3:2:6FCA,[K:clef=bass] F,C,A,, F,,2 z2 | 
[V:1] f'6(3d'c'b | 
[V:2] .d'2.d2.f2.b2 | 
[V:3] (3:2:9BFG FD_E DB,C B,2 | 
[V:4] z8 | 
[V:1] (3:2:6_e'c'a _ecA F2 z2 | 
[V:2] .a2.c'2_e'4 | 
[V:3] z4(3:2:6F,A,C FAc | 
[V:4] .F,,2.A,,2.C,2.F,2 | 
[V:1] .f2.a2.c'2._e'2 | 
[V:2] z4z2 (3agf | 
[V:3] (3:2:9_ecd cAB AFG F2 | 
[V:4] .A,2.C2_E4 | 
[V:1] .d'2.f'2b'4- | 
[V:2] (3:2:6bfd BFD B,2 z2 | 
[V:3] z4(3:2:6BFD B,F,D, | 
[V:4] .F,2.B,2D4 | 
[V:1] (3:2:12b'ge BGE B,EG Beg | 
[V:2] z4.E2.G2 | 
[V:3] .E,2.G,2[E,4G,4] | 
[V:4] .C,,2.E,,2.G,,2.C,2 | 
[V:1] (3:2:12bge cfa afd B_eg | 
[V:2] (3:2:12EFG ABA Bcd _eBB | 
[V:3] (3:2:12GDE FGF FBB BGG | 
[V:4] [K:clef=tenor](3:2:12CCC FFF FFF F_EE | 
[V:1] (3:2:12ge^c Adf fd=B e=cG | 
[V:2] (3:2:12A=B^c AAA B=cd GGG | 
[V:3] (3:2:12GGG GFF [DF][DF][DF] EFE | 
[V:4] (3:2:12=EEE EDD G,A,=B, CDC | 
[V:1] f2c2f2.d2 | 
[V:2] F2C2F2.D2 | 
[V:3] ^G,8- | 
[V:4] [K:clef=bass]^G,,8- | 
[V:1] c6de | 
[V:2] C4GCDE | 
[V:3] G,2A,2B,2.=G,2 | 
[V:4] G,,2A,,2B,,2.=G,,2 | 
[V:1] f2g2a2.a2 | 
[V:2] F2^C2^c2.f2 | 
[V:3] F,2E2G2.D2 | 
[V:4] F,,2E,2G,2.D,2 | 
[V:1] a2g2f2d2 | 
[V:2] e2^c2A2=B2 | 
[V:3] ^C2E2F2.F2 | 
[V:4] ^C,2A,2D2.^G,2 | 
[V:1] d^c.c.d d=c.c.c | 
[V:2] .A.A.G.G GGGG | 
[V:3] .F.E.E.E EEEE | 
[V:4] A,2A,2B,2B,2 | 
[V:1] cA.A.B .B.=B.B.c | 
[V:2] FFFF FFFA | 
[V:3] A,F,F,F, F,F,F,F | 
[V:4] C2C2D2D2 | 
[V:1] (3:2:12c^cc cdd' d'^c'c' c'=c'c' | 
[V:2] (3:2:12fff fff [Bf][Bf][Bf] [Bf][Bf][Bf] | 
[V:3] (3:2:12AAA FFF FFF FFF | 
[V:4] [K:clef=tenor]z2 (3AAA z2 (3B,B,B, | 
[V:1] (3:2:12c'ab b=bc' c'd'c' _bag | 
[V:2] (3:2:12[Af][Af][Af] [Af][Af][Af] [Bf][Bf][Bf] ccc | 
[V:3] (3:2:12FFF FFF FFF [GB][GB][GB] | 
[V:4] z2 (3:2:9CCC DDD EE.E | 
[V:1] f4(3:2:6ed'c' bag | 
[V:2] c8- | 
[V:3] A,4B,4 | 
[V:4] [K:clef=bass]F,4G,4 | 
[V:1] .f2.g2.c2 z2 | 
[V:2] .c2.G2 (3:2:6G,FE DCB, | 
[V:3] .C2.D2.E2c2- | 
[V:4] .A,2.B,2 (3:2:6CD,C, B,,A,,G,, | 
[V:1] (3:2:12z c'b agf ed'c' bag | 
[V:2] A,4B,4 | 
[V:3] c4-(3:2:6cdc BAG | 
[V:4] F,,4G,,4 | 
[V:1] .f2.g2.c2.[e2e'2] | 
[V:2] .C2.D2 (3:2:6G,dc BAG | 
[V:3] (3:2:12FAG FED CDC B,A,G, | 
[V:4] .A,,2.B,,2.C,2 .C2 | 
[V:1] .[^f2^f'2] z2 z> adf | 
[V:2] .c2 z2 z2 [C2D2] | 
[V:3] .[C,2C2] z2 z2 A2 | 
[V:4] .A,,2 z2z4 | 
[V:1] .g2 z2z4 | 
[V:2] .[B,2D2] z2 z> GCE | 
[V:3] .G2 z2 z> B,E,G, | 
[V:4] z4z2 C,2 | 
[V:1] z4z z/ a/d^f | 
[V:2] .F2 z2 z2 d2- | 
[V:3] .[C,2A,2] z2 z2 c2 | 
[V:4] .F,,2 z2z4 | 
[V:1] .g2 z2z4 | 
[V:2] .d2 z2 z> GCE | 
[V:3] .B2 z2 z> B,E,G, | 
[V:4] z4z2 C,2 | 
[V:1] z4z3 d/e/ | 
[V:2] .G2 z2 ^F2G2 | 
[V:3] .[E,2G,2] z2z4 | 
[V:4] .C,,2 z2z4 | 
[V:1] ^f4c7/d/ | 
[V:2] ^G,2A,2E2F2 | 
[V:3] z8 | 
[V:4] z4z2 z E,,/^F,,/ | 
[V:1] =B2 z2z4 | 
[V:2] E2D2z4 | 
[V:3] z4^C2D2 | 
[V:4] G,,2 z2 z3 A,,/B,,/ | 
[V:1] z8 | 
[V:2] z8 | 
[V:3] ^D,2E,2C2B,2 | 
[V:4] C,4G,,7/A,,/ | 
[V:1] z4^f2g2 | 
[V:2] z4z2 z D/E/ | 
[V:3] B,2A,2z4 | 
[V:4] F,,2 z C,,/D,,/ E,,2 z2 | 
[V:1] ^G2A2 e2f2 | 
[V:2] F4C7/D/ | 
[V:3] z4z3 E/F/ | 
[V:4] z8 | 
[V:1] e2d2 z3 g/a/ | 
[V:2] =B,3 d/e/f4 | 
[V:3] G4z4 | 
[V:4] z4^C2D2 | 
[V:1] b4f3-(3g/f/g/ | 
[V:2] z4(3:2:6EGc egc' | 
[V:3] z8 | 
[V:4] ^D,2E,2C2B,2 | 
[V:1] a4e3-(3f/ g/a/ | 
[V:2] c'2 z2 (3:2:6FAc fac' | 
[V:3] z8 | 
[V:4] E,2F,2C2A,2 | 
[V:1] b4f3-(3g/ f/g/ | 
[V:2] ^D2E2c2B2 | 
[V:3] (3:2:6C,E,G, CEG B2 z2 | 
[V:4] z2 z[K:clef=tenor] C/D/ E2 z2 | 
[V:1] a4e7/f/ | 
[V:2] E2F2c2A G/A/ | 
[V:3] z2 z F/G/ A3 G,/A,/ | 
[V:4] [K:clef=bass](3:2:6C,,F,,A,, C,F,A, A,2 z2 | 
[V:1] ^d2e2c'2b2 | 
[V:2] B4F3(3G/ F/G/ | 
[V:3] B,4F,3(3G,/ F,/G,/ | 
[V:4] (3:2:5C,,E,,G,, C,E,(9:8:3G,// G,//A,// B,2 z2 | 
[V:1] e2f2c'2a g/a/ | 
[V:2] A4E3(3F/ G/A/ | 
[V:3] A,4E,3(3F,/ G,/A,/ | 
[V:4] (3:2:5C,,F,,A,, C,F,(9:8:3A,// F,//G,// A,2 z G,/A,/ | 
[V:1] .b e/f/ .g c/d/ .e G/A/ .B E/F/ | 
[V:2] .B E/F/ .G C/D/ .E G/A/ .B E/F/ | 
[V:3] .B, E/F/ .G C/D/ .E G,/A,/ .B, E,/F,/ | 
[V:4] .B, E/F/ .G C/D/ .E G,/A,/ .B, E,/F,/ | 
[V:1] .G C/D/ .E G,/A,/ .B,2 z2 | 
[V:2] .G C/D/ .E G,/A,/ .B,2 z2 | 
[V:3] .G, C,/D,/ .E, G,/A,/ (3:2:6B,DC B,A,G, | 
[V:4] .G, C,/D,/ .E, G,,/A,,/ (3:2:6B,,D,C, B,,A,,G,, | 
[V:1] z8 | 
[V:2] (3:2:12z cB AGF Edc BAG | 
[V:3] F,4(3:2:6E,DC B,A,G, | 
[V:4] F,,4G,,4 | 
[V:1] z4(3:2:6z d'c' bag | 
[V:2] .F2.G2 (3:2:6.Cdc BAG | 
[V:3] .F,2.G,2.C,2 F,G, | 
[V:4] .A,,2.B,,2.C,2 D,E, | 
[V:1] (3:2:12fce fga ed'c' bag | 
[V:2] A,4B,4 | 
[V:3] (3:2:6z cB AGFE4 | 
[V:4] F,4G,4 | 
[V:1] .f2.g2.c2 .c' a/b/ | 
[V:2] .C2.D2.C2 ._E2 | 
[V:3] .F2.d2.c2 ._E,2 | 
[V:4] .A,2.B,2.C2 ._E,,2 | 
[V:1] c'4g7/a/ | 
[V:2] _E6C2 | 
[V:3] _E,8 | 
[V:4] _E,,8 | 
[V:1] .^f2 z2 z3 c'/d'/ | 
[V:2] .A a/b/ .c'2 z3 c/d/ | 
[V:3] ._E, A/B/ .c2 z3 C/D/ | 
[V:4] ._E,,2 z2 z3 C,/D,/ | 
[V:1] _e'4b7/c'/ | 
[V:2] _e4B7/c/ | 
[V:3] _E4B,7/C/ | 
[V:4] _E,4B,,7/C,/ | 
[V:1] a c'/d'/ ._e'2z4 | 
[V:2] .A2 z2z4 | 
[V:3] .A, c/d/ ._e2 z> CF,A, | 
[V:4] .A,,2 z C,/D,/ _E,2 z2 | 
[V:1] z4z> _eFc | 
[V:2] z> dFB c2.A,2 | 
[V:3] B,2 z2z4 | 
[V:4] D,2D,2A,,2F,,2 | 
[V:1] d>_e f2- fz/g/c=e | 
[V:2] z2 D>_E F2.[C2=E2] | 
[V:3] z4z2 .G,2 | 
[V:4] z2 B,>CD2 B,2 | 
[V:1] .f2 z2 z2 g2 | 
[V:2] z> ACF .G2.E2 | 
[V:3] z4z> B,C,G, | 
[V:4] z2 A,2E,2C,2 | 
[V:1] z2 a>b .c'2.d'2 | 
[V:2] z8 | 
[V:3] A,>B, C2-C FED | 
[V:4] z2 F,>G, A,2 B,2 | 
[V:1] z4z gec | 
[V:2] z dBG .F GCG | 
[V:3] .C B,D,B, .A, B,G,E | 
[V:4] z2 G,,B,, .C,2.B,,2 | 
[V:1] a>bc'2- !fermata!c'> f'e'd' | 
[V:2] A>B [F2c2]- !fermata![Fc]> fed | 
[V:3] F>G A,>B, !fermata![F,C]> FED | 
[V:4] A,,2F,,>G,, !fermata!A,,> z B,,2 | 
[V:1] .c' z/ d'/bg .f z/ g/ec | 
[V:2] .c z/ d/BG .F z/ G/EC | 
[V:3] .C z/ D/B,G, .F, z/ G,/E,C, | 
[V:4] z2 B,,2 C, z/ G,,/E,,C,, | 
[V:1] [A2f2] z2!fermata!z4 |]  
[V:2] [A,2F2] z2!fermata!z4 |]  
[V:3] F,2 z2!fermata!z4 |]  
[V:4] F,,2 z2!fermata!z4 |]  


